dist/icons/svgs/home-outline.svg

<svg xmlns="http://www.w3.org/2000/svg" width="24" height="24" fill="currentcolor" class="icon-home-outline" viewBox="0 0 24 24">
  <path d="M12.5924 2.20538L22.6815 10.9682C23.0637 11.3203 23.1019 11.9071 22.7962 12.2983C22.4522 12.6895 21.879 12.7286 21.4968 12.4156L20.5796 11.5941V18.8704C20.5796 20.6308 19.2038 22 17.5223 22H6.51592C4.79618 22 3.4586 20.6308 3.4586 18.8704V11.5941L2.50318 12.4156C2.12102 12.7286 1.54777 12.6895 1.20382 12.2983C0.898089 11.9071 0.936306 11.3203 1.31847 10.9682L11.4076 2.20538C11.7516 1.93154 12.2484 1.93154 12.5924 2.20538ZM5.29299 18.8704C5.29299 19.5746 5.82803 20.1222 6.51592 20.1222H8.35032V14.176C8.35032 13.3154 9 12.6112 9.87898 12.6112H14.1592C15 12.6112 15.6879 13.3154 15.6879 14.176V20.1222H17.5223C18.172 20.1222 18.7452 19.5746 18.7452 18.8704V9.99022L12.0191 4.16137L5.29299 9.99022V18.8704ZM10.1847 20.1222H13.8535V14.489H10.1847V20.1222Z"/>
</svg>

<svg xmlns="http://www.w3.org/2000/svg" width="24" height="24" fill="currentColor" class="icon-home-outline" viewBox="0 0 24 24">
  <path d="m12.592 2.205 10.09 8.763c.382.352.42.94.114 1.33a.937.937 0 0 1-1.3.118l-.916-.822v7.276c0 1.76-1.376 3.13-3.058 3.13H6.516c-1.72 0-3.057-1.37-3.057-3.13v-7.276l-.956.822a.937.937 0 0 1-1.3-.118.99.99 0 0 1 .115-1.33l10.09-8.763a.96.96 0 0 1 1.184 0M5.293 18.87c0 .705.535 1.252 1.223 1.252H8.35v-5.946c0-.86.65-1.565 1.529-1.565h4.28c.841 0 1.529.704 1.529 1.565v5.946h1.834c.65 0 1.223-.547 1.223-1.252V9.99L12.02 4.161l-6.726 5.83zm4.892 1.252h3.669V14.49h-3.67z"/>
</svg>
